!!!COM: Bach, Johann Sebastian
!!!CDT: 1685/3//-1750/7/28/
!!!OTL@@DE: Ach wie fluechtig, ach wie nichtig
!!!AGN: 4-Part Chorale
!!!OPR: Cantata, BWV 26
!!!SCT: BH 048
!!!SCT: BWV 26
**harm	**root	**kern	**kern	**kern	**kern
!	!	!bass	!tenor	!alto	!soprno
*	*Iorgan	*Iorgan	*Iorgan	*Iorgan	*Iorgan
*	*	*clefF4	*clefF4	*clefG2	*clefG2
*M4/4	*M4/4	*M4/4	*M4/4	*M4/4	*M4/4
*met(c)	*met(c)	*met(c)	*met(c)	*met(c)	*met(c)
*MM60	*MM60	*MM60	*MM60	*MM60	*MM60
*k[f#]	*k[f#]	*k[f#]	*k[f#]	*k[f#]	*k[f#]
*e:	*e:	*e:	*e:	*e:	*e:
=1-	=1-	=1-	=1-	=1-	=1-
i	4AA	4E	4G	4B	4e
Vb	4EE	4D#	4F#	4B	4f#
i	4AA	4E	4E	4B	4g
i;	4AA;	4EE;	4E;	4B;	4g;
=2	=2	=2	=2	=2	=2
i	4AA	4E	4E	4B	4g
V/III	4GG	4D	4F#	4d	4a
I/III	4CC	4G	4G	4d	4b
I/III;	4CC;	4GG;	4G;	4d;	4b;
=3	=3	=3	=3	=3	=3
I/III	4CC	8G	8G	4d	4b
.	.	8F#	8A	.	.
i	4AA	8E	8G	[4g	4b
.	.	8D	8F#	.	.
V7b/-VII	8DD	8C#	8E	8g]	4a
viio	8GG#	8D#	8F#	4f#	.
i	4AA	4E	8G	.	4g
.	.	.	8B	8e	.
=4	=4	=4	=4	=4	=4
iv7	4DD	4AA	4c	4e	4.f#
V	4EE	4BB	8B	4d#	.
.	.	.	8A	.	8e
I;	2AA;	2EE;	2G#;	2B;	2e;
=5	=5	=5	=5	=5	=5
I	4AA	8E	8G#	4e	4b
.	.	8F#	8A	.	.
Ib	4AA	8G#	8B	4e	4b
.	.	8E	8G#	.	.
iv	4DD	8A	4A	4e	4cc
.	.	8G	.	.	.
-II	4BB-	8F	4A	4f	4cc
.	.	8E	.	.	.
!!linebreak: 2
=6	=6	=6	=6	=6	=6
viiD7/VI	4EE	8D	4A	4f	4b
.	.	8BB	.	.	.
V/IV	4AA	4E	4G#	8e	4b
.	.	.	.	8d	.
IV	4DD	4AA	4A	8d	4b
.	.	.	.	8B	.
IV;	4DD;	4AA;	4E;	4c#;	4a;
*G:	*G:	*G:	*G:	*G:	*G:
=7	=7	=7	=7	=7	=7
V	4GG	8D	8F#	4d	4a
.	.	8E	8G	.	.
Vb	4GG	8F#	8A	4d	4a
.	.	8D	8F#	.	.
I	4CC	8G	4G	4d	4b
.	.	8F#	.	.	.
vi	4AA	8E	4G	4e	4b
.	.	8D	.	.	.
=8	=8	=8	=8	=8	=8
ii7b	4DD	8C	4G	4e	4a
.	.	8AA	.	.	.
V	4GG	4D	4F#	8d	4a
.	.	.	.	8c	.
I	4CC	4GG	4G	8c	4g
.	.	.	.	8A	.
I;	4CC;	4GG;	4D;	4B;	4g;
*e:	*e:	*e:	*e:	*e:	*e:
=9	=9	=9	=9	=9	=9
VI	4FF	4C	4E	4c	4g
iv	4DD	8BB	4E	4c	4a
.	.	8AA	.	.	.
Vb	4EE	8D#	4F#	4B	4b
.	.	8BB	.	.	.
I	4AA	4E	4E	4B	8a
.	.	.	.	.	8g
=10	=10	=10	=10	=10	=10
V7b/V	4BB	4AA#	4E	4c#	4f#
V	4EE	4BB	4D#	8B	4f#
.	.	.	.	8A	.
I	4AA	4E	4E	8A	4e
.	.	.	.	8F#	.
I;	4AA;	4EE;	4BB;	4G#;	4e;
====	====	====	====	====	====
*-	*-	*-	*-	*-	*-
!!chor2scor: -l 2 -s 0.6 -o %b.pmx
!!!YEC: Copyright 1994, David Huron
!!!YEC: Changes/Additions 2001 by Craig Stuart Sapp
!!!YEN: United States of America
!!!SMA: 371 Bach Chorales, edited by Ludwig Erk, C.F. Peters
!!!PDT: 1850, 1865
